X: 36297
T: Seamus Ennis'
R: jig
M: 6/8
K: Dmajor
|:AG|FDF ABc|dAG FED|~G3 FGA|BGE EAG|
FDF ABc|dAG FED|dfa gec|dAF D:|
|:df|afd gec|dAG FED|~G3 FGA|BGE E2 f|
afd gec|AG FED|dfa gec|dAF D:|

